public/images/handle.svg

<svg width="12" height="24" fill="none" xmlns="http://www.w3.org/2000/svg"><path fill-rule="evenodd" clip-rule="evenodd" d="M1 8V6h10v2H1zm0 3v2h10v-2H1zm0 5v2h10v-2H1z" fill="#333"/></svg>

<svg width="12" height="24" viewBox="0 0 12 24" fill="none" xmlns="http://www.w3.org/2000/svg">
<path fill-rule="evenodd" clip-rule="evenodd" d="M1 8V6H11V8H1ZM1 11V13H11V11H1ZM1 16V18H11V16H1Z" fill="#333333"/>
</svg>
